src/lib/packages/icons/src/assets/filled/arrows-repeat-circle.svg

<svg width="24" height="24" viewBox="0 0 24 24" fill="none" xmlns="http://www.w3.org/2000/svg">
<path d="M12 2C6.477 2 2 6.477 2 12C2 17.523 6.477 22 12 22C17.523 22 22 17.523 22 12C22 6.477 17.523 2 12 2ZM6.75 10.5C6.75 9.259 7.76 8.25 9 8.25H14.689L14.469 8.03003C14.176 7.73703 14.176 7.26199 14.469 6.96899C14.762 6.67599 15.237 6.67599 15.53 6.96899L17.03 8.46899C17.099 8.53799 17.1539 8.62089 17.1919 8.71289C17.2679 8.89589 17.2679 9.10289 17.1919 9.28589C17.1539 9.37789 17.099 9.46103 17.03 9.53003L15.53 11.03C15.384 11.176 15.192 11.25 15 11.25C14.808 11.25 14.616 11.177 14.47 11.03C14.177 10.737 14.177 10.262 14.47 9.96899L14.6899 9.74902H9C8.587 9.74902 8.25 10.085 8.25 10.499V11.999C8.25 12.413 7.914 12.749 7.5 12.749C7.086 12.749 6.75 12.413 6.75 11.999V10.5ZM17.25 13.5C17.25 14.741 16.24 15.75 15 15.75H9.31104L9.53101 15.97C9.82401 16.263 9.82401 16.738 9.53101 17.031C9.38501 17.177 9.19298 17.251 9.00098 17.251C8.80898 17.251 8.61695 17.178 8.47095 17.031L6.97095 15.531C6.90195 15.462 6.84708 15.3791 6.80908 15.2871C6.73308 15.1041 6.73308 14.8971 6.80908 14.7141C6.84708 14.6221 6.90195 14.539 6.97095 14.47L8.47095 12.97C8.76395 12.677 9.23898 12.677 9.53198 12.97C9.82498 13.263 9.82498 13.738 9.53198 14.031L9.31201 14.251H15C15.413 14.251 15.75 13.915 15.75 13.501V12.001C15.75 11.587 16.086 11.251 16.5 11.251C16.914 11.251 17.25 11.587 17.25 12.001V13.5Z" fill="currentColor"/>
</svg>

<svg xmlns="http://www.w3.org/2000/svg" width="24" height="24" fill="none"><path fill="currentColor" d="M12 2C6.477 2 2 6.477 2 12s4.477 10 10 10 10-4.477 10-10S17.523 2 12 2Zm-5.25 8.5c0-1.241 1.01-2.25 2.25-2.25h5.689l-.22-.22a.75.75 0 0 1 1.061-1.061l1.5 1.5a.748.748 0 0 1 .162.817.75.75 0 0 1-.162.244l-1.5 1.5a.748.748 0 0 1-1.06 0 .75.75 0 0 1 0-1.061l.22-.22H9a.75.75 0 0 0-.75.75v1.5a.75.75 0 0 1-1.5 0V10.5Zm10.5 3c0 1.241-1.01 2.25-2.25 2.25H9.311l.22.22a.75.75 0 0 1-1.06 1.061l-1.5-1.5a.748.748 0 0 1-.162-.817.749.749 0 0 1 .162-.244l1.5-1.5a.75.75 0 0 1 1.061 1.061l-.22.22H15a.75.75 0 0 0 .75-.75v-1.5a.75.75 0 0 1 1.5 0V13.5Z"/></svg>
